public/images/phone.svg

<svg width="64" height="64" viewBox="0 0 64 64" fill="none" xmlns="http://www.w3.org/2000/svg">
<path d="M41.8853 57.8853L38.1147 54.1147L54.1147 38.1147L57.8853 41.888L41.8853 57.8853ZM22.1147 6.11467L25.8853 9.88534L9.88533 25.8853L6.11467 22.112L22.1147 6.11467Z" fill="#6B4695"/>
<path d="M24 42.6667C25.4728 42.6667 26.6667 41.4728 26.6667 40C26.6667 38.5272 25.4728 37.3333 24 37.3333C22.5272 37.3333 21.3333 38.5272 21.3333 40C21.3333 41.4728 22.5272 42.6667 24 42.6667Z" fill="#6B4695"/>
<path d="M41.4267 7.488C39.4107 5.472 35.9013 5.472 33.8853 7.488L7.488 33.8853C6.48881 34.8858 5.92757 36.242 5.92757 37.656C5.92757 39.07 6.48881 40.4262 7.488 41.4267L22.5733 56.512C23.5813 57.52 24.92 58.0747 26.344 58.0747C27.768 58.0747 29.1067 57.52 30.1147 56.512L56.512 30.1147C57.52 29.1067 58.0747 27.768 58.0747 26.344C58.0747 24.92 57.52 23.5813 56.512 22.5733L41.4267 7.488ZM26.344 52.7413L11.2587 37.656L37.656 11.2587L52.7413 26.344L26.344 52.7413Z" fill="#6B4695"/>
</svg>

<svg width="64" height="64" fill="none" xmlns="http://www.w3.org/2000/svg"><path d="m41.885 57.885-3.77-3.77 16-16 3.77 3.773-16 15.997Zm-19.77-51.77 3.77 3.77-16 16-3.77-3.773 16-15.997ZM24 42.667a2.667 2.667 0 1 0 0-5.334 2.667 2.667 0 0 0 0 5.334Z" fill="#6B4695"/><path d="M41.427 7.488c-2.016-2.016-5.526-2.016-7.542 0L7.488 33.885a5.336 5.336 0 0 0 0 7.542l15.085 15.085a5.297 5.297 0 0 0 3.771 1.563 5.297 5.297 0 0 0 3.77-1.563l26.398-26.397a5.297 5.297 0 0 0 1.563-3.771 5.297 5.297 0 0 0-1.563-3.77L41.427 7.487ZM26.344 52.741 11.259 37.656l26.397-26.397 15.085 15.085-26.397 26.397Z" fill="#6B4695"/></svg>
